Numix-GalliumOS/32/categories/applications-ruby.svg

<?xml version="1.0" encoding="UTF-8" standalone="no"?>
<svg
   xmlns:dc="http://purl.org/dc/elements/1.1/"
   xmlns:cc="http://creativecommons.org/ns#"
   xmlns:rdf="http://www.w3.org/1999/02/22-rdf-syntax-ns#"
   xmlns:svg="http://www.w3.org/2000/svg"
   xmlns="http://www.w3.org/2000/svg"
   xmlns:sodipodi="http://sodipodi.sourceforge.net/DTD/sodipodi-0.dtd"
   xmlns:inkscape="http://www.inkscape.org/namespaces/inkscape"
   width="32"
   height="32"
   viewBox="0 0 32 32"
   id="svg2"
   version="1.1"
   inkscape:version="0.91 r"
   sodipodi:docname="applications-ruby.svg">
  <metadata
     id="metadata36">
    <rdf:RDF>
      <cc:Work
         rdf:about="">
        <dc:format>image/svg+xml</dc:format>
        <dc:type
           rdf:resource="http://purl.org/dc/dcmitype/StillImage" />
      </cc:Work>
    </rdf:RDF>
  </metadata>
  <defs
     id="defs34" />
  <sodipodi:namedview
     pagecolor="#ffffff"
     bordercolor="#666666"
     borderopacity="1"
     objecttolerance="10"
     gridtolerance="10"
     guidetolerance="10"
     inkscape:pageopacity="0"
     inkscape:pageshadow="2"
     inkscape:window-width="1920"
     inkscape:window-height="1056"
     id="namedview32"
     showgrid="true"
     inkscape:zoom="16"
     inkscape:cx="13.27703"
     inkscape:cy="16.66376"
     inkscape:window-x="0"
     inkscape:window-y="24"
     inkscape:window-maximized="1"
     inkscape:current-layer="svg2">
    <inkscape:grid
       type="xygrid"
       id="grid4164" />
  </sodipodi:namedview>
  <path
     inkscape:connector-curvature="0"
     id="path6"
     d="m 13.139897,6.8040557 2.593226,6.5808023 2.913418,-7.4847963"
     style="fill:none;stroke:#de4646;stroke-width:0.5;stroke-linecap:round;stroke-linejoin:round;stroke-miterlimit:4;stroke-dasharray:none"
     sodipodi:nodetypes="ccc" />
  <path
     inkscape:connector-curvature="0"
     id="path8"
     d="M 13.139897,6.8041053 8.1070572,13.827755 9.0805054,7.5584448"
     style="fill:none;stroke:#de4646;stroke-width:0.5;stroke-linecap:round;stroke-linejoin:round;stroke-miterlimit:4;stroke-dasharray:none"
     sodipodi:nodetypes="ccc" />
  <path
     style="fill:none;stroke:#de4646;stroke-width:0.5;stroke-linecap:round;stroke-linejoin:round;stroke-miterlimit:4;stroke-dasharray:none"
     d="M 18.646541,5.9061784 24.418346,11.706242 23.212977,5.7534903"
     id="path12"
     inkscape:connector-curvature="0"
     sodipodi:nodetypes="ccc" />
  <path
     style="fill:none;stroke:#de4646;stroke-width:0.5;stroke-linecap:round;stroke-linejoin:round;stroke-miterlimit:4;stroke-dasharray:none"
     d="M 3.7499606,13.894493 17.717466,26.249839 11.625848,13.799442 Z"
     id="path14"
     inkscape:connector-curvature="0"
     sodipodi:nodetypes="cccc" />
  <path
     style="fill:none;stroke:#de4646;stroke-width:0.5;stroke-linecap:round;stroke-linejoin:round;stroke-miterlimit:4;stroke-dasharray:none"
     d="M 3.7504351,13.894493 9.0598213,7.5584448 13.139897,6.8041053 11.625848,13.799442 Z"
     id="path16"
     inkscape:connector-curvature="0"
     sodipodi:nodetypes="ccccc" />
  <path
     style="fill:none;stroke:#de4646;stroke-width:0.5;stroke-linecap:round;stroke-linejoin:round;stroke-miterlimit:4;stroke-dasharray:none"
     d="m 18.646541,5.9001113 4.566436,-0.1463966 5.037046,4.8625363 -8.041866,2.287287"
     id="path18"
     inkscape:connector-curvature="0"
     sodipodi:nodetypes="cccc" />
  <path
     style="fill:none;stroke:#de4646;stroke-width:0.5;stroke-linecap:round;stroke-linejoin:round;stroke-miterlimit:4;stroke-dasharray:none"
     d="m 13.139707,6.8041053 5.506834,-0.903994 1.561616,7.0034267 -8.582309,0.89616"
     id="path20"
     inkscape:connector-curvature="0"
     sodipodi:nodetypes="cccc" />
  <path
     style="fill:none;stroke:#de4646;stroke-width:0.5;stroke-linecap:round;stroke-linejoin:round;stroke-miterlimit:4;stroke-dasharray:none"
     d="M 17.717466,26.250089 28.250023,10.616251 20.208157,12.903066 Z"
     id="path22"
     inkscape:connector-curvature="0"
     sodipodi:nodetypes="cccc" />
  <path
     style="fill:none;stroke:#de4646;stroke-width:0.25;stroke-linecap:round;stroke-linejoin:round;stroke-miterlimit:4;stroke-dasharray:none"
     d="m 24.418346,11.706302 -6.70088,14.543787"
     id="path26"
     inkscape:connector-curvature="0"
     sodipodi:nodetypes="cc" />
  <path
     style="fill:none;stroke:#de4646;stroke-width:0.25;stroke-linecap:round;stroke-linejoin:round;stroke-miterlimit:4;stroke-dasharray:none"
     d="m 15.732807,13.384858 1.984659,12.865231"
     id="path28"
     inkscape:connector-curvature="0"
     sodipodi:nodetypes="cc" />
  <path
     style="fill:none;stroke:#de4646;stroke-width:0.25;stroke-linecap:round;stroke-linejoin:round;stroke-miterlimit:4;stroke-dasharray:none"
     d="M 8.1068991,13.827755 17.717466,26.250089"
     id="path30"
     inkscape:connector-curvature="0"
     sodipodi:nodetypes="cc" />
</svg>

<svg xmlns="http://www.w3.org/2000/svg" viewBox="0 0 32 32">
 <path d="m 13.14 6.804 2.593 6.581 2.913 -7.485" style="stroke-dasharray:none;fill:none;stroke-miterlimit:4;stroke:#de4646;stroke-linecap:round;stroke-linejoin:round;stroke-width:0.5"/>
 <path d="m 13.14 6.804 -5.03 7.02 0.973 -6.269" style="stroke-dasharray:none;fill:none;stroke-miterlimit:4;stroke:#de4646;stroke-linecap:round;stroke-linejoin:round;stroke-width:0.5"/>
 <path d="m 18.647 5.906 5.772 5.8 -1.205 -5.953" style="stroke-dasharray:none;fill:none;stroke-miterlimit:4;stroke:#de4646;stroke-linecap:round;stroke-linejoin:round;stroke-width:0.5"/>
 <path d="m 3.75 13.894 13.968 12.355 -6.092 -12.45" style="stroke-dasharray:none;fill:none;stroke-miterlimit:4;stroke:#de4646;stroke-linecap:round;stroke-linejoin:round;stroke-width:0.5"/>
 <path d="m 3.75 13.894 5.309 -6.336 4.08 -0.754 -1.514 6.995" style="stroke-dasharray:none;fill:none;stroke-miterlimit:4;stroke:#de4646;stroke-linecap:round;stroke-linejoin:round;stroke-width:0.5"/>
 <path d="m 18.647 5.9 4.566 -0.146 5.04 4.863 -8.04 2.287" style="stroke-dasharray:none;fill:none;stroke-miterlimit:4;stroke:#de4646;stroke-linecap:round;stroke-linejoin:round;stroke-width:0.5"/>
 <path d="m 13.14 6.804 5.507 -0.904 1.562 7 -8.582 0.896" style="stroke-dasharray:none;fill:none;stroke-miterlimit:4;stroke:#de4646;stroke-linecap:round;stroke-linejoin:round;stroke-width:0.5"/>
 <path d="m 17.717 26.25 10.533 -15.634 -8.04 2.287" style="stroke-dasharray:none;fill:none;stroke-miterlimit:4;stroke:#de4646;stroke-linecap:round;stroke-linejoin:round;stroke-width:0.5"/>
 <path d="m 24.418 11.706 -6.701 14.544" style="stroke-dasharray:none;fill:none;stroke-miterlimit:4;stroke:#de4646;stroke-linecap:round;stroke-linejoin:round;stroke-width:0.25"/>
 <path d="m 15.733 13.385 1.985 12.865" style="stroke-dasharray:none;fill:none;stroke-miterlimit:4;stroke:#de4646;stroke-linecap:round;stroke-linejoin:round;stroke-width:0.25"/>
 <path d="m 8.107 13.828 9.611 12.422" style="stroke-dasharray:none;fill:none;stroke-miterlimit:4;stroke:#de4646;stroke-linecap:round;stroke-linejoin:round;stroke-width:0.25"/>
</svg>
